packages/san-cli-ui/client/assets/dashboard-icon.svg

<?xml version="1.0" encoding="UTF-8"?>
<svg width="24px" height="24px" viewBox="0 0 24 24" version="1.1" xmlns="http://www.w3.org/2000/svg" xmlns:xlink="http://www.w3.org/1999/xlink">
    <title>仪表盘-激活</title>
    <g id="仪表盘-激活" stroke="none" stroke-width="1" fill="none" fill-rule="evenodd">
        <g id="仪表盘-(1)" fill="#FFFFFF" fill-rule="nonzero">
            <path d="M11.9948596,7.96590911 C11.521698,7.96590911 11.1381247,7.58433361 11.1381247,7.11363638 L11.1381247,5.40909092 C11.1381247,4.93839369 11.521698,4.55681819 11.9948596,4.55681819 C12.4680212,4.55681819 12.8515945,4.93839369 12.8515945,5.40909092 L12.8515945,7.11363638 C12.8515945,7.58433361 12.4680212,7.96590911 11.9948596,7.96590911 L11.9948596,7.96590911 Z M6.54259874,7.30284092 L7.75402188,8.50795457 C7.98056759,8.72102066 8.07288246,9.03969237 7.99505828,9.34001422 C7.9172341,9.64033608 7.68155695,9.87489633 7.37969947,9.95245679 C7.07784198,10.0300172 6.75745833,9.93833347 6.5431699,9.71306819 L5.33117562,8.50795457 C5.10846167,8.29397066 5.01914185,7.97709271 5.09754631,7.67911303 C5.17595076,7.38113336 5.40987794,7.14842455 5.70941772,7.07042844 C6.0089575,6.99243233 6.3274945,7.08128694 6.54259874,7.30284092 L6.54259874,7.30284092 Z M5.14098048,13.0795455 C5.6141421,13.0795455 5.99771537,13.461121 5.99771537,13.9318182 C5.99771537,14.4025154 5.6141421,14.7840909 5.14098048,14.7840909 L3.4275107,14.7840909 C2.95434909,14.7840909 2.57077581,14.4025154 2.57077581,13.9318182 C2.57077581,13.461121 2.95434909,13.0795455 3.4275107,13.0795455 L5.14098048,13.0795455 L5.14098048,13.0795455 Z M20.5622085,13.0795455 C21.0353701,13.0795455 21.4189433,13.461121 21.4189433,13.9318182 C21.4189433,14.4025154 21.0353701,14.7840909 20.5622085,14.7840909 L18.8487387,14.7840909 C18.3755771,14.7840909 17.9920038,14.4025154 17.9920038,13.9318182 C17.9920038,13.461121 18.3755771,13.0795455 18.8487387,13.0795455 L20.5622085,13.0795455 L20.5622085,13.0795455 Z M18.6585435,7.30284092 C18.9929974,7.63565329 18.9929974,8.17514219 18.6585435,8.50795457 L17.4471204,9.71306819 C17.2867576,9.8734036 17.068771,9.96354732 16.8414088,9.96354732 C16.6140467,9.96354732 16.3960601,9.8734036 16.2356973,9.71306819 C15.9012435,9.38025582 15.9012435,8.84076694 16.2356973,8.50795457 L17.4471204,7.30284092 C17.7816753,6.97012905 18.3239887,6.97012905 18.6585435,7.30284092 L18.6585435,7.30284092 Z M20.1167063,20.1818182 C21.5145959,18.3950683 22.2742515,16.1959441 22.2756782,13.9318182 C22.2756782,8.29261365 17.6641599,3.70454546 11.9948596,3.70454546 C6.32613041,3.70454546 1.71404092,8.29261365 1.71404092,13.9318182 C1.71404092,16.1982955 2.47596381,18.3909091 3.87301284,20.1818182 L20.1167063,20.1818182 L20.1167063,20.1818182 Z M11.9948596,2 C18.6191337,2 23.989148,7.34204546 23.989148,13.9318182 C23.989148,16.9920455 22.8211328,19.7744318 20.9163255,21.8863636 L3.07339361,21.8863636 C1.16858639,19.7744318 0,16.9920455 0,13.9318182 C0.000571138743,7.34204546 5.37115659,2 11.9948596,2 Z M11.1872442,13.1284091 C11.6327463,12.6846591 13.5678248,11.4795455 14.0144693,11.9227273 C14.4599714,12.3670455 13.2485483,14.2914773 12.802475,14.7352273 C12.5156694,15.0306331 12.0909532,15.1491062 11.6915665,15.0451115 C11.2921799,14.9411168 10.9802767,14.6308381 10.8757375,14.2335316 C10.7711983,13.8362251 10.8902918,13.4137209 11.1872442,13.1284091 L11.1872442,13.1284091 Z" id="形状"></path>
        </g>
    </g>
</svg>

<svg width="24" height="24" xmlns="http://www.w3.org/2000/svg"><path d="M11.995 7.966a.855.855 0 01-.857-.852V5.409c0-.47.384-.852.857-.852s.857.381.857.852v1.705c0 .47-.384.852-.857.852zm-5.452-.663l1.211 1.205a.85.85 0 01-.374 1.444.86.86 0 01-.837-.239L5.331 8.508A.85.85 0 015.71 7.07a.86.86 0 01.834.233zM5.14 13.08c.473 0 .857.381.857.852 0 .47-.384.852-.857.852H3.428a.855.855 0 01-.857-.852c0-.47.383-.852.857-.852H5.14zm15.421 0c.473 0 .857.381.857.852 0 .47-.384.852-.857.852H18.85a.855.855 0 01-.857-.852c0-.47.384-.852.857-.852h1.713zM18.66 7.303a.85.85 0 010 1.205l-1.212 1.205a.857.857 0 01-1.211 0 .85.85 0 010-1.205l1.211-1.205a.86.86 0 011.212 0zm1.458 12.879a10.152 10.152 0 002.159-6.25c0-5.64-4.612-10.227-10.281-10.227-5.669 0-10.281 4.588-10.281 10.227 0 2.266.762 4.459 2.159 6.25h16.244zM11.995 2c6.624 0 11.994 5.342 11.994 11.932 0 3.06-1.168 5.842-3.073 7.954H3.073C1.17 19.774 0 16.992 0 13.932 0 7.342 5.371 2 11.995 2zm-.808 11.128c.446-.443 2.38-1.648 2.827-1.205.446.444-.765 2.368-1.212 2.812a1.146 1.146 0 01-1.926-.501c-.105-.398.014-.82.311-1.106z" fill="#FFF" fill-rule="nonzero"/></svg>
